X: 973
T: Texas Shuffle
B: jims roots
M:4/4
L:1/8
Q: 1/4=100
K:D
V:1 
|: "D"df2dA2F2 | A,4 z2Ac | df2d A2F2 | "A"E6 zF | Ge2f edcB |
Ge2f edcB | [1 A2 G2 {=F}[F2A,] E2 | "D"D4z2 Ac :|[2 A^G A2 B2 c2 | "D"d6zA ||
|:"D"db2 da2 f2 |{c}[d6f] zA | db2 da2 f2 | "A"{=c}[e4c] z2ef | gfga gfef |
g2ga g2ga | [1 "A"g2a2 [e2c'][d2b] | "A"[d6f]zA:| [2 "A"[c2a]([c2a][e2c'])[e2c'] | "D"[fd'][fd'][f2d'][f2d'] |]
% abcbook-tune_id 6298c297f0f3093802f42bfe


% abcbook-boost 0
% abcbook-tablature 
% abcbook-transpose 
% abcbook-lastupdated 1654178456156
% abcbook-soundfonts 
% abcbook-repeats 1


